X:2
T:Booth Shot Lincoln [1]
M:C
L:1/8
R:Reel
S:Jim Taylor, Bruce Greene
N:From a transcription by John Lamancusa, by permission. See http://www.mne.psu.edu/lamancusa/tunes.htm
Z:AK/Fiddler’s Companion
Z: Contributed 2016-01-22 17:46:49 by tex tex.ritter@gmail.com
K:A
(3AGF |: EDEF ED E2 | FA2F A2 (A2 | A)BcB Ac B2 | A F2 (F F2) GF |
EDEF ED E2 | F A2B A3(f | e)c2B AcBA |1 G A2 (A2 A) AF :|2 GA2(A2 A) AB ||
ce2(e e3) e | fa2(a a3)f | ec3 AcBA | AF2F F2AB | ce2(e e3)e | fa2(a a3)f |
ec2B AcBA | G A2(A2A) AB | ce2(e e3)e | fa2(a a3)f | ec2c2c B BA |
AF2(F F2) AF | EDEF ED E2 | FA2B A3 (f | e)c2B AcBA | GA2 (A A4) ||

